healthcode/common/icons/vaccines.svg

<svg enable-background="new 0 0 24 24" height="24" viewBox="0 0 24 24" width="24" xmlns="http://www.w3.org/2000/svg"><path d="m0 0h24v24h-24z" fill="none"/><path d="m11 5.5h-3v-1.5h.5c.55 0 1-.45 1-1s-.45-1-1-1h-3c-.55 0-1 .45-1 1s.45 1 1 1h.5v1.5h-3c-.55 0-1 .45-1 1s.45 1 1 1v7.5c0 1.1.9 2 2 2h1v4l2 1.5v-5.5h1c1.1 0 2-.9 2-2v-7.5c.55 0 1-.45 1-1s-.45-1-1-1zm-2 3.5h-1.75c-.41 0-.75.34-.75.75s.34.75.75.75h1.75v1.5h-1.75c-.41 0-.75.34-.75.75s.34.75.75.75h1.75v1.5h-4v-7.5h4zm10.5 1.5v-.5c.55 0 1-.45 1-1s-.45-1-1-1h-5c-.55 0-1 .45-1 1s.45 1 1 1v.5c0 .5-1.5 1.16-1.5 3v6.5c0 1.1.9 2 2 2h4c1.1 0 2-.9 2-2v-6.5c0-1.84-1.5-2.5-1.5-3zm-3 0v-.5h1v.5c0 1.6 1.5 2 1.5 3v.5h-4c0-.21 0-.39 0-.5 0-1 1.5-1.4 1.5-3zm2.5 5v1.5h-4c0-.51 0-1.02 0-1.5zm-4 4.5s0-.63 0-1.5h4v1.5z"/></svg>

<svg xmlns="http://www.w3.org/2000/svg" enable-background="new 0 0 24 24" height="24px" viewBox="0 0 24 24" width="24px" fill="#000000"><rect fill="none" height="24" width="24"/><path d="M11,5.5H8V4h0.5c0.55,0,1-0.45,1-1c0-0.55-0.45-1-1-1h-3c-0.55,0-1,0.45-1,1c0,0.55,0.45,1,1,1H6v1.5H3c-0.55,0-1,0.45-1,1 c0,0.55,0.45,1,1,1V15c0,1.1,0.9,2,2,2h1v4l2,1.5V17h1c1.1,0,2-0.9,2-2V7.5c0.55,0,1-0.45,1-1C12,5.95,11.55,5.5,11,5.5z M9,9H7.25 C6.84,9,6.5,9.34,6.5,9.75c0,0.41,0.34,0.75,0.75,0.75H9V12H7.25c-0.41,0-0.75,0.34-0.75,0.75c0,0.41,0.34,0.75,0.75,0.75H9L9,15H5 V7.5h4V9z M19.5,10.5V10c0.55,0,1-0.45,1-1c0-0.55-0.45-1-1-1h-5c-0.55,0-1,0.45-1,1c0,0.55,0.45,1,1,1v0.5c0,0.5-1.5,1.16-1.5,3V20 c0,1.1,0.9,2,2,2h4c1.1,0,2-0.9,2-2v-6.5C21,11.66,19.5,11,19.5,10.5z M16.5,10.5V10h1v0.5c0,1.6,1.5,2,1.5,3V14h-4 c0-0.21,0-0.39,0-0.5C15,12.5,16.5,12.1,16.5,10.5z M19,15.5V17h-4c0-0.51,0-1.02,0-1.5H19z M15,20c0,0,0-0.63,0-1.5h4V20H15z"/></svg>
